X:1
T:The Wonderful Story
T:The Wonderful Story
T:Benjamin Burke Beall
T:Maud Sims, 1900
T:Public Domain Courtesy of the Cyber Hymnal™
C:Benjamin Burke Beall
Z:Public Domain
Z:Courtesy of the Cyber Hymnal™
%%score ( 1 2 ) ( 3 4 )
L:1/8
Q:1/4=85
M:6/8
K:A
V:1 treble 
V:2 treble 
V:3 bass 
V:4 bass 
V:1
 [Ec]>[Ec][Ec] [Ec][DB][CA] | [DB]<[DA][DF] [CE]3 | [DF]>[EG][FA] E[EA][Ec] | [EB]3- [EB]2 z | %4
w: 1.~Tell me a- gain of that|beau- ti- ful home|Je- sus has gone to pre-|pare, *|
w: 2.~Tell me a- gain that no|sick- ness e’er comes|In- to that home of the|blest, *|
w: 3.~Tell me a- gain that His|love is the light,|Dark- ness will ne- ver come|there; *|
w: 4.~Tell me a- gain that He|rose from the dead,|Went to His Fa- ther on|high, *|
 [Ec]>[Ec][Ec] [Ec][DB][CA] | [DB]<[DA][DF] [CE]3 | [DF]>[EG][FA] [CE][Ec]>[DB] | [CA]3- [CA]2 z || %8
w: That we in sor- row no|long- er rmay roam|In that blest ci- ty up|there. *|
w: That He is com- ing to|ga- ther His own,|Take them at last to His|rest. *|
w: Day ev- er- last- ing shall|ban- ish the night,|Plea- sures shall ban- ish all|care. *|
w: That He is com- ing to|take us there, too,|In that sweet, sweet “By and|By.” *|
"^Refrain" [EB]>[EB][EB] [EB] E2 | [Ec]>[Ec][Ec] [Ec] [CA]2 | [EA]>[EA][CA] [CA] [CA]2 | %11
w: |||
w: |||
w: |||
w: |||
 [^DA]>[DB][Dc] [Ec] [EB]2 | [Ec]>[Ec][Ec] [Ec][DB][CA] | [DB]<[DA][DF] [CE]3 | %14
w: |||
w: |||
w: |||
w: |||
 [DF]>[EG][FA] E[EA][FB] | [Ec]<[Ec][DB] [CA]3 |] %16
w: ||
w: ||
w: ||
w: ||
V:2
 x6 | x6 | x3 E x2 | x6 | x6 | x6 | x6 | x6 || x4 E2 | x6 | x6 | x6 | x6 | x6 | x3 E x2 | x6 |] %16
V:3
 [A,,A,]>[A,,A,][A,,A,] [A,,A,][A,,E,][A,,E,] | [D,F,]<[D,F,][D,A,] [A,,A,]3 | %2
w: ||
 [D,A,]>[D,A,][D,A,] [C,A,][C,A,][A,,A,] | [E,G,]3- [E,G,]2 z | %4
w: ||
 [A,,A,]>[A,,A,][A,,A,] [A,,A,][A,,E,][A,,E,] | [D,F,]<[D,F,][D,A,] [A,,A,]3 | %6
w: ||
 [D,A,]>[D,A,][D,A,] [E,A,][E,A,]>[E,G,] | [A,,A,]3- [A,,A,]2 z || %8
w: ||
 [E,G,]>[E,G,][E,G,] [E,G,] [E,G,]2 | [A,,A,]>[C,A,][E,A,] A, A,2 | [A,C]>[A,C]A, [F,A,] [F,A,]2 | %11
w: Won- der- ful sto- ry!|Won- der- ful sto- ry!|Je- sus is com- ing,|
 [B,,F,]>[B,,F,][B,,A,] [E,A,] [E,G,]2 | [A,,A,]>[A,,A,][A,,A,] [A,,A,][A,,E,][A,,E,] | %13
w: com- ing in glo- ry,|Com- ing to ga- ther His|
 [D,F,]<[D,F,][D,A,] [A,,A,]3 | [D,A,]>[D,A,][D,A,] [C,A,][C,A,][D,A,] | %15
w: jew- els, His own,|Take them in joy to His|
 [E,A,]<[E,A,]E, [A,,E,]3 |] %16
w: beau- ti- ful home.|
V:4
 x6 | x6 | x6 | x6 | x6 | x6 | x6 | x6 || x6 | x3 A, A,2 | x2 A, x3 | x6 | x6 | x6 | x6 | %15
 x2 E, x3 |] %16

